X:1597
T:Doolin No 2
O:england
R:double jig
M:6/8
L:1/8
Q:140
K:C
B2B cBc|d2B cAG|G2G dcA|F2F dcB|
B2B cBc|d2d fga|gfd cAd|GAG G3:|
g2g GBd|dcA AGG|G2g GBd|cBA GBd|
g2g GBd|cBA AGE|_FAc f2d|1 ecA G3:|2 ecA GBd|
|:f2f g2g|agf edc|fge f2d|dcA/2B/2 cde|
f2f g2g|fde fga|gfd cAd|GAG G3:|


